!! George Gerswhin, "Naughty Baby" from
!! "Bumper Book of George Gerswhin,"
!! London: Chappell Music Ltd., 1987; pp.286-289
**kern
*M2/2
*MM[Moderato]
=1
8.b
16cc
8.dd
16cc
8.b
16cc
8.dd
16cc
=2
4b
2.b
=3
8.g
16a
8.b
16a
8.g
16a
8.b
16a
=4
1g
=5
8.d
16e
8.f
16e
8.d
16e
8.f
16e
=6
8d
8r
2.d
!! page 287
=7
4f
4a
4cc
4ee
=8
4dd
4b
2a
=9
8.b
16cc
8.dd
16cc
8.b
16cc
8.dd
16cc
=10
4b
2.b
=11
8.g
16a
8.b
16a
8.g
16a
8.b
16a
=12
2.g
4r
=13
8a
4dd
8r
8g
4cc#
8r
=14
8f#
4b
8r
8e
4a
8r
=15
1a
=16
1a#
!! page 288
!! Refrain
=17
4b
8a
[8cc
8cc]
8a
4b
=18
8a
4cc
8a
4b
8a
[8cc
=19
1cc]
=20
2..ee
8r
=21
4a
8g
[8b
8b]
8g
4a
=22
8g
4b
8g
4a
8g
[8b
=23
1b]
=24
2..dd
8r
=25
2e
2b
=26
8g
8a
8f#
8d
8e
4.f#
=27
2e
2b
=28
1dd
=29
2f#
2dd#
=30
8b
8cc#
8a#
8f#
8g#
4.a#
=31
2g#
2dd#
=32
2b
2ddn
=33
4b
8a
[8cc
8cc]
8a
4b
!! page 289
=34
8a
4cc
8a
4b
8a
[8cc
=35
1cc]
=36
2..ee
8r
=37
4a
8g
[8b
8b]
8g
4a
=38
8g
4b
8g
4a
8g
[8b
=39
1b]
=40
2..dd
8r
=41
2e
2b
=42
8g
8a
8f#
8d
8e
4.f#
=43
2ee
2f#
=44
2.dd
4cc
=45
4b
8a
[8cc
8cc]
8a
4b
=46
8a
4cc
8a
4cc
4b
!! First ending.
=47
2.g
4r
=48
1r
!! page 288
!! Refrain
=17
4b
8a
[8cc
8cc]
8a
4b
=18
8a
4cc
8a
4b
8a
[8cc
=19
1cc]
=20
2..ee
8r
=21
4a
8g
[8b
8b]
8g
4a
=22
8g
4b
8g
4a
8g
[8b
=23
1b]
=24
2..dd
8r
=25
2e
2b
=26
8g
8a
8f#
8d
8e
4.f#
=27
2e
2b
=28
1dd
=29
2f#
2dd#
=30
8b
8cc#
8a#
8f#
8g#
4.a#
=31
2g#
2dd#
=32
2b
2ddn
=33
4b
8a
[8cc
8cc]
8a
4b
!! page 289
=34
8a
4cc
8a
4b
8a
[8cc
=35
1cc]
=36
2..ee
8r
=37
4a
8g
[8b
8b]
8g
4a
=38
8g
4b
8g
4a
8g
[8b
=39
1b]
=40
2..dd
8r
=41
2e
2b
=42
8g
8a
8f#
8d
8e
4.f#
=43
2ee
2f#
=44
2.dd
4cc
=45
4b
8a
[8cc
8cc]
8a
4b
=46
8a
4cc
8a
4cc
4b
!! Second ending.
=47
[1g
=48
2g]
2r
====
*-
